packages/kaspersky-hexa-ui-icons/src/iconsSVGs/16x12/FlagKg.svg

<svg width="16" height="12" viewBox="0 0 16 12" fill="none" xmlns="http://www.w3.org/2000/svg">
<g clip-path="url(#clip0_41816_2962)">
<rect width="16" height="12" rx="2" fill="white"/>
<mask id="mask0_41816_2962" style="mask-type:luminance" maskUnits="userSpaceOnUse" x="0" y="0" width="16" height="12">
<rect width="16" height="12" rx="2" fill="white"/>
</mask>
<g mask="url(#mask0_41816_2962)">
<rect width="16" height="12" fill="#F22A46"/>
<path d="M9.16895 3.63232L10.6133 2.8042L10.1064 4.36182L11.7754 4.22607L10.626 5.41553L12.1904 5.99951L10.626 6.58447L11.7754 7.77393L10.1064 7.63818L10.6133 9.1958L9.16895 8.36768L8.93262 9.98584L8 8.62744L7.06738 9.98584L6.83203 8.36768L5.3877 9.1958L5.89453 7.63818L4.22461 7.77393L5.37402 6.58447L3.80957 5.99951L5.37402 5.41553L4.22461 4.22607L5.89453 4.36182L5.3877 2.8042L6.83203 3.63232L7.06738 2.01416L8 3.37256L8.93262 2.01416L9.16895 3.63232ZM8 3.39893C6.52756 3.39908 5.33428 4.56313 5.33398 5.99951C5.33398 7.43614 6.52737 8.60092 8 8.60107C9.47259 8.60088 10.667 7.43612 10.667 5.99951C10.6667 4.56316 9.47241 3.39912 8 3.39893ZM8 4.14209C9.05196 4.1421 9.9043 4.97427 9.9043 6.00049C9.90406 7.02652 9.05181 7.8579 8 7.85791C6.94817 7.85791 6.09594 7.02652 6.0957 6.00049C6.0957 4.97426 6.94803 4.14209 8 4.14209Z" fill="#FFF04D"/>
</g>
</g>
<defs>
<clipPath id="clip0_41816_2962">
<rect width="16" height="12" fill="white"/>
</clipPath>
</defs>
</svg>

<svg xmlns="http://www.w3.org/2000/svg" width="16" height="12" fill="none" viewBox="0 0 16 12"><g clip-path="url(#a)"><rect width="16" height="12" fill="#fff" rx="2"/><mask id="b" width="16" height="12" x="0" y="0" maskUnits="userSpaceOnUse" style="mask-type:luminance"><rect width="16" height="12" fill="#fff" rx="2"/></mask><g mask="url(#b)"><path fill="#f22a46" d="M0 0h16v12H0z"/><path fill="#fff04d" d="m9.169 3.6323 1.4443-.8281-.5069 1.5576 1.669-.1357-1.1494 1.1894 1.5644.584-1.5644.585 1.1494 1.1894-1.669-.1357.5069 1.5576-1.4443-.8281-.2364 1.6181L8 8.6274l-.9326 1.3584-.2354-1.6181-1.4443.8281.5068-1.5576-1.6699.1357L5.374 6.5845l-1.5644-.585 1.5644-.584-1.1494-1.1894 1.67.1357-.5069-1.5576 1.4443.8281.2354-1.6181L8 3.3726l.9326-1.3584zM8 3.399c-1.4724.0002-2.6657 1.1642-2.666 2.6006C5.334 7.4361 6.5274 8.601 8 8.6011c1.4726-.0002 2.667-1.165 2.667-2.6016C10.6667 4.5632 9.4724 3.3991 8 3.399m0 .7432c1.052 0 1.9043.8322 1.9043 1.8584C9.9041 7.0265 9.0518 7.8579 8 7.8579s-1.904-.8314-1.9043-1.8574C6.0957 4.9743 6.948 4.142 8 4.142"/></g></g><defs><clipPath id="a"><path fill="#fff" d="M0 0h16v12H0z"/></clipPath></defs></svg>
